!!!OTL: EIN STRAEUSSCHEN AM HUTE
!!!ARE: Europa, Mitteleuropa, Deutschland, Thueringen; Sachsen; Brandenburg
!!!SCT: B0662
!!!YEM: Copyright 1995, estate of Helmut Schaffrath.
**kern
*ICvox
*Ivox
*M3/4
*k[f#]
*G:
{4d
=1
4.b
8a
4g
=2
4.d
8e
4d
=3
4d
4f#
4a
=4
2a}
{4d
=5
4.cc
8b
4a
=6
4g
4f#
4e
=7
4d
4b
4a
=8
2g}
{4g
=9
4a
4a
4a
=10
4.a
8a
4a
=11
4a
4dd
4cc
=12
2b}
{8g
8a
=13
4.b
8a
4b
=14
4cc
4e
4a
=15
4g
4b
4a
=16
4g
4r}
==
!!!AGN: Wander -, Moral - Lied, Vergaenglichkeit
!!!ONB: ESAC (Essen Associative Code) Database: BOEHME
!!!AMT: simple triple
!!!AIN: vox
!!!EED: Helmut Schaffrath
!!!EEV: 1.0
*-
